assets/warning-fill.svg

<svg xmlns="http://www.w3.org/2000/svg" fill="none" viewBox="0 0 28 24">
  <path fill="#2A2238" fill-rule="evenodd" d="m13.8564 0 13.8564 24H0L13.8564 0Zm1 20c0 .5523-.4477 1-1 1s-1-.4477-1-1 .4477-1 1-1 1 .4477 1 1Zm0-2h-2V7.94286c.3333-1.25715 1.6667-1.25715 2 0V18Z" clip-rule="evenodd"/>
</svg>

<svg width="28" height="24" viewBox="0 0 28 24" fill="none" xmlns="http://www.w3.org/2000/svg">
<path fill-rule="evenodd" clip-rule="evenodd" d="M13.8564 0L27.7128 24H0L13.8564 0ZM14.8564 20C14.8564 20.5523 14.4087 21 13.8564 21C13.3041 21 12.8564 20.5523 12.8564 20C12.8564 19.4477 13.3041 19 13.8564 19C14.4087 19 14.8564 19.4477 14.8564 20ZM14.8564 18H12.8564V7.94286C13.1897 6.68571 14.5231 6.68571 14.8564 7.94286V18Z" fill="#2A2238"/>
</svg>
